bil/img/logo.svg

<?xml version="1.0" encoding="utf-8"?>
<!-- Generator: Adobe Illustrator 28.0.0, SVG Export Plug-In . SVG Version: 6.00 Build 0)  -->
<svg version="1.1" id="Слой_1" xmlns="http://www.w3.org/2000/svg" xmlns:xlink="http://www.w3.org/1999/xlink" x="0px" y="0px"
	 viewBox="0 0 202 56" style="enable-background:new 0 0 202 56;" xml:space="preserve">
<style type="text/css">
	.st0{fill:#1D1D1B;}
	.st1{fill:#FFFFFF;}
	.st2{fill:url(#SVGID_1_);}
	.st3{fill:url(#SVGID_00000074440783086737949770000001505921794837999035_);}
	.st4{fill:url(#SVGID_00000083067042431311007160000002065568975835918516_);}
	.st5{fill:url(#SVGID_00000183217959396053076660000018256544642930285219_);}
	.st6{fill:none;stroke:url(#SVGID_00000180356930206827467200000013864817742603331488_);}
</style>
<path class="st0" d="M0,42.4V13.3h7.4c1.3,0,2.4,0.1,3.5,0.3c1.1,0.2,2,0.6,2.8,1.2c0.8,0.6,1.5,1.3,1.9,2.3c0.5,1,0.7,2.2,0.7,3.8
	c0,1.2-0.2,2.2-0.5,3c-0.3,0.8-0.8,1.5-1.4,1.9c-0.6,0.5-1.4,0.8-2.3,1c1.1,0.2,2.1,0.6,2.8,1.2s1.3,1.4,1.7,2.4
	c0.4,1,0.6,2.2,0.6,3.6c0,1.5-0.2,2.7-0.6,3.8c-0.4,1.1-0.9,2-1.6,2.7c-0.7,0.7-1.6,1.2-2.7,1.6c-1.1,0.3-2.3,0.5-3.7,0.5H0z
	 M5.9,38.2h1.7c1.5,0,2.5-0.4,3.1-1.1c0.6-0.7,0.9-1.9,0.9-3.3c0-1.2-0.1-2.1-0.4-2.7c-0.3-0.7-0.7-1.2-1.3-1.5
	C9.2,29.2,8.5,29,7.5,29H5.9V38.2z M5.9,25h1.5c1,0,1.8-0.1,2.3-0.4c0.5-0.3,0.9-0.8,1.1-1.4c0.2-0.6,0.3-1.4,0.3-2.3
	s-0.2-1.6-0.5-2.1c-0.3-0.6-0.7-0.9-1.4-1.2c-0.6-0.2-1.4-0.4-2.3-0.4H5.9V25z"/>
<path class="st0" d="M34,42.4V13.3h5.9v29.1H34z"/>
<path class="st0" d="M57.7,42.4V13.3h5.9v25.1h6.8v4H57.7z"/>
<path class="st1" d="M86.9,42.4V13.3h6.3c1.3,0,2.4,0.2,3.3,0.5c0.9,0.3,1.6,0.8,2.2,1.5c0.6,0.6,0.9,1.4,1.2,2.3
	c0.3,0.9,0.4,1.9,0.4,2.9c0,0.9-0.1,1.8-0.4,2.7c-0.2,0.9-0.6,1.6-1.1,2.2c-0.5,0.6-1.3,1-2.2,1.2c1.1,0.3,2,0.9,2.7,1.6
	c0.6,0.7,1.1,1.6,1.3,2.6c0.3,1,0.4,2,0.4,3.1c0,1.2-0.1,2.2-0.3,3.3c-0.2,1-0.6,1.9-1.1,2.7c-0.5,0.8-1.2,1.4-2.1,1.8
	c-0.9,0.4-2,0.6-3.4,0.6H86.9z M89.6,40.4h3.9c1.9,0,3.2-0.5,3.8-1.5c0.6-1,1-2.6,1-4.8c0-1.2-0.1-2.2-0.4-3.1
	c-0.3-0.9-0.8-1.6-1.5-2.1c-0.7-0.5-1.6-0.8-2.8-0.8h-4V40.4z M89.6,25.8h4c1.1,0,2-0.2,2.6-0.6c0.6-0.5,1-1.1,1.3-1.8
	c0.2-0.8,0.4-1.7,0.4-2.8c0-1.2-0.2-2.1-0.5-2.9c-0.3-0.8-0.9-1.3-1.7-1.7c-0.8-0.4-1.9-0.5-3.4-0.5h-2.6V25.8z"/>
<linearGradient id="SVGID_1_" gradientUnits="userSpaceOnUse" x1="88.4995" y1="30.3691" x2="189.0565" y2="30.463" gradientTransform="matrix(1 0 0 -1 0 58.2202)">
	<stop  offset="0" style="stop-color:#EA4213"/>
	<stop  offset="1" style="stop-color:#FAFF10"/>
</linearGradient>
<path class="st2" d="M86.9,42.4V13.3h6.3c1.3,0,2.4,0.2,3.3,0.5c0.9,0.3,1.6,0.8,2.2,1.5c0.6,0.6,0.9,1.4,1.2,2.3
	c0.3,0.9,0.4,1.9,0.4,2.9c0,0.9-0.1,1.8-0.4,2.7c-0.2,0.9-0.6,1.6-1.1,2.2c-0.5,0.6-1.3,1-2.2,1.2c1.1,0.3,2,0.9,2.7,1.6
	c0.6,0.7,1.1,1.6,1.3,2.6c0.3,1,0.4,2,0.4,3.1c0,1.2-0.1,2.2-0.3,3.3c-0.2,1-0.6,1.9-1.1,2.7c-0.5,0.8-1.2,1.4-2.1,1.8
	c-0.9,0.4-2,0.6-3.4,0.6H86.9z M89.6,40.4h3.9c1.9,0,3.2-0.5,3.8-1.5c0.6-1,1-2.6,1-4.8c0-1.2-0.1-2.2-0.4-3.1
	c-0.3-0.9-0.8-1.6-1.5-2.1c-0.7-0.5-1.6-0.8-2.8-0.8h-4V40.4z M89.6,25.8h4c1.1,0,2-0.2,2.6-0.6c0.6-0.5,1-1.1,1.3-1.8
	c0.2-0.8,0.4-1.7,0.4-2.8c0-1.2-0.2-2.1-0.5-2.9c-0.3-0.8-0.9-1.3-1.7-1.7c-0.8-0.4-1.9-0.5-3.4-0.5h-2.6V25.8z"/>
<path class="st1" d="M116.6,42.4l6.1-29.1h2.9l6.2,29.1h-2.7l-1.4-7.8h-6.9l-1.5,7.8H116.6z M121.2,32.6h6.2l-3.1-15.7L121.2,32.6z"
	/>
<linearGradient id="SVGID_00000084511305421162554210000004897299026837428155_" gradientUnits="userSpaceOnUse" x1="88.4996" y1="30.3347" x2="189.0566" y2="30.4286" gradientTransform="matrix(1 0 0 -1 0 58.2202)">
	<stop  offset="0" style="stop-color:#EA4213"/>
	<stop  offset="1" style="stop-color:#FAFF10"/>
</linearGradient>
<path style="fill:url(#SVGID_00000084511305421162554210000004897299026837428155_);" d="M116.6,42.4l6.1-29.1h2.9l6.2,29.1h-2.7
	l-1.4-7.8h-6.9l-1.5,7.8H116.6z M121.2,32.6h6.2l-3.1-15.7L121.2,32.6z"/>
<path class="st1" d="M154.8,42.8c-1.6,0-2.9-0.3-4-1c-1-0.7-1.8-1.6-2.3-2.8c-0.5-1.2-0.9-2.6-1-4.2l2.4-0.7
	c0.1,1.2,0.3,2.3,0.6,3.3c0.3,1,0.8,1.7,1.5,2.3c0.7,0.6,1.6,0.8,2.8,0.8c1.3,0,2.3-0.3,3-1c0.7-0.7,1.1-1.7,1.1-3.2
	c0-1.3-0.3-2.4-1-3.3c-0.6-0.9-1.5-1.9-2.6-2.9l-5.1-4.9c-0.9-0.9-1.6-1.8-2-2.7c-0.4-1-0.6-2-0.6-3.1c0-2,0.6-3.6,1.8-4.6
	c1.2-1.1,2.8-1.6,4.8-1.6c1,0,2,0.1,2.8,0.4c0.8,0.3,1.5,0.7,2.1,1.3c0.6,0.6,1.1,1.3,1.4,2.3c0.3,0.9,0.6,2.1,0.7,3.4l-2.3,0.6
	c-0.1-1.2-0.3-2.3-0.6-3.1c-0.3-0.9-0.8-1.6-1.4-2c-0.6-0.5-1.5-0.7-2.6-0.7c-1.2,0-2.2,0.3-2.9,0.9s-1.2,1.6-1.2,2.9
	c0,0.8,0.1,1.5,0.4,2.2c0.3,0.6,0.9,1.3,1.6,2.1l5.1,4.9c1.1,1.1,2.1,2.3,3,3.6c0.8,1.3,1.3,2.8,1.3,4.5c0,1.5-0.3,2.7-0.9,3.7
	c-0.6,1-1.3,1.7-2.3,2.2C157.3,42.5,156.2,42.8,154.8,42.8z"/>
<linearGradient id="SVGID_00000121280119164953412860000011616002189242613637_" gradientUnits="userSpaceOnUse" x1="88.4996" y1="30.2733" x2="189.0566" y2="30.3672" gradientTransform="matrix(1 0 0 -1 0 58.2202)">
	<stop  offset="0" style="stop-color:#EA4213"/>
	<stop  offset="1" style="stop-color:#FAFF10"/>
</linearGradient>
<path style="fill:url(#SVGID_00000121280119164953412860000011616002189242613637_);" d="M154.8,42.8c-1.6,0-2.9-0.3-4-1
	c-1-0.7-1.8-1.6-2.3-2.8c-0.5-1.2-0.9-2.6-1-4.2l2.4-0.7c0.1,1.2,0.3,2.3,0.6,3.3c0.3,1,0.8,1.7,1.5,2.3c0.7,0.6,1.6,0.8,2.8,0.8
	c1.3,0,2.3-0.3,3-1c0.7-0.7,1.1-1.7,1.1-3.2c0-1.3-0.3-2.4-1-3.3c-0.6-0.9-1.5-1.9-2.6-2.9l-5.1-4.9c-0.9-0.9-1.6-1.8-2-2.7
	c-0.4-1-0.6-2-0.6-3.1c0-2,0.6-3.6,1.8-4.6c1.2-1.1,2.8-1.6,4.8-1.6c1,0,2,0.1,2.8,0.4c0.8,0.3,1.5,0.7,2.1,1.3
	c0.6,0.6,1.1,1.3,1.4,2.3c0.3,0.9,0.6,2.1,0.7,3.4l-2.3,0.6c-0.1-1.2-0.3-2.3-0.6-3.1c-0.3-0.9-0.8-1.6-1.4-2
	c-0.6-0.5-1.5-0.7-2.6-0.7c-1.2,0-2.2,0.3-2.9,0.9s-1.2,1.6-1.2,2.9c0,0.8,0.1,1.5,0.4,2.2c0.3,0.6,0.9,1.3,1.6,2.1l5.1,4.9
	c1.1,1.1,2.1,2.3,3,3.6c0.8,1.3,1.3,2.8,1.3,4.5c0,1.5-0.3,2.7-0.9,3.7c-0.6,1-1.3,1.7-2.3,2.2C157.3,42.5,156.2,42.8,154.8,42.8z"
	/>
<path class="st1" d="M178.5,42.4V13.3H189v2.1h-7.8v10.9h6.3v2h-6.3v12h7.8v2H178.5z"/>
<linearGradient id="SVGID_00000142877425096254429940000016096058523987836292_" gradientUnits="userSpaceOnUse" x1="88.4996" y1="30.282" x2="189.0566" y2="30.3759" gradientTransform="matrix(1 0 0 -1 0 58.2202)">
	<stop  offset="0" style="stop-color:#EA4213"/>
	<stop  offset="1" style="stop-color:#FAFF10"/>
</linearGradient>
<path style="fill:url(#SVGID_00000142877425096254429940000016096058523987836292_);" d="M178.5,42.4V13.3H189v2.1h-7.8v10.9h6.3v2
	h-6.3v12h7.8v2H178.5z"/>
<linearGradient id="SVGID_00000007421347435638022990000000955494921796384920_" gradientUnits="userSpaceOnUse" x1="87.5153" y1="30.3102" x2="200.9982" y2="30.0779" gradientTransform="matrix(1 0 0 -1 0 58.2202)">
	<stop  offset="0" style="stop-color:#EA4213;stop-opacity:0"/>
	<stop  offset="1" style="stop-color:#FAFF10"/>
</linearGradient>
<path style="fill:none;stroke:url(#SVGID_00000007421347435638022990000000955494921796384920_);" d="M78,1h123v54H78"/>
</svg>

<svg width="202" height="56" viewBox="0 0 202 56" fill="none" xmlns="http://www.w3.org/2000/svg">
	<g clip-path="url(#clip0_1_2)">
		<path
			d="M0 42.4V13.3H7.4C8.7 13.3 9.8 13.4 10.9 13.6C12 13.8 12.9 14.2 13.7 14.8C14.5 15.4 15.2 16.1 15.6 17.1C16.1 18.1 16.3 19.3 16.3 20.9C16.3 22.1 16.1 23.1 15.8 23.9C15.5 24.7 15 25.4 14.4 25.8C13.8 26.3 13 26.6 12.1 26.8C13.2 27 14.2 27.4 14.9 28C15.6 28.6 16.2 29.4 16.6 30.4C17 31.4 17.2 32.6 17.2 34C17.2 35.5 17 36.7 16.6 37.8C16.2 38.9 15.7 39.8 15 40.5C14.3 41.2 13.4 41.7 12.3 42.1C11.2 42.4 10 42.6 8.6 42.6H0V42.4ZM5.9 38.2H7.6C9.1 38.2 10.1 37.8 10.7 37.1C11.3 36.4 11.6 35.2 11.6 33.8C11.6 32.6 11.5 31.7 11.2 31.1C10.9 30.4 10.5 29.9 9.9 29.6C9.2 29.2 8.5 29 7.5 29H5.9V38.2ZM5.9 25H7.4C8.4 25 9.2 24.9 9.7 24.6C10.2 24.3 10.6 23.8 10.8 23.2C11 22.6 11.1 21.8 11.1 20.9C11.1 20 10.9 19.3 10.6 18.8C10.3 18.2 9.9 17.9 9.2 17.6C8.6 17.4 7.8 17.2 6.9 17.2H5.9V25Z"
			fill="#1D1D1B" />
		<path d="M34 42.4V13.3H39.9V42.4H34Z" fill="#1D1D1B" />
		<path d="M57.7 42.4V13.3H63.6V38.4H70.4V42.4H57.7Z" fill="#1D1D1B" />
		<path
			d="M86.9 42.4V13.3H93.2C94.5 13.3 95.6 13.5 96.5 13.8C97.4 14.1 98.1 14.6 98.7 15.3C99.3 15.9 99.6 16.7 99.9 17.6C100.2 18.5 100.3 19.5 100.3 20.5C100.3 21.4 100.2 22.3 99.9 23.2C99.7 24.1 99.3 24.8 98.8 25.4C98.3 26 97.5 26.4 96.6 26.6C97.7 26.9 98.6 27.5 99.3 28.2C99.9 28.9 100.4 29.8 100.6 30.8C100.9 31.8 101 32.8 101 33.9C101 35.1 100.9 36.1 100.7 37.2C100.5 38.2 100.1 39.1 99.6 39.9C99.1 40.7 98.4 41.3 97.5 41.7C96.6 42.1 95.5 42.3 94.1 42.3H86.9V42.4ZM89.6 40.4H93.5C95.4 40.4 96.7 39.9 97.3 38.9C97.9 37.9 98.3 36.3 98.3 34.1C98.3 32.9 98.2 31.9 97.9 31C97.6 30.1 97.1 29.4 96.4 28.9C95.7 28.4 94.8 28.1 93.6 28.1H89.6V40.4ZM89.6 25.8H93.6C94.7 25.8 95.6 25.6 96.2 25.2C96.8 24.7 97.2 24.1 97.5 23.4C97.7 22.6 97.9 21.7 97.9 20.6C97.9 19.4 97.7 18.5 97.4 17.7C97.1 16.9 96.5 16.4 95.7 16C94.9 15.6 93.8 15.5 92.3 15.5H89.7V25.8H89.6Z"
			fill="white" />
		<path
			d="M86.9 42.4V13.3H93.2C94.5 13.3 95.6 13.5 96.5 13.8C97.4 14.1 98.1 14.6 98.7 15.3C99.3 15.9 99.6 16.7 99.9 17.6C100.2 18.5 100.3 19.5 100.3 20.5C100.3 21.4 100.2 22.3 99.9 23.2C99.7 24.1 99.3 24.8 98.8 25.4C98.3 26 97.5 26.4 96.6 26.6C97.7 26.9 98.6 27.5 99.3 28.2C99.9 28.9 100.4 29.8 100.6 30.8C100.9 31.8 101 32.8 101 33.9C101 35.1 100.9 36.1 100.7 37.2C100.5 38.2 100.1 39.1 99.6 39.9C99.1 40.7 98.4 41.3 97.5 41.7C96.6 42.1 95.5 42.3 94.1 42.3H86.9V42.4ZM89.6 40.4H93.5C95.4 40.4 96.7 39.9 97.3 38.9C97.9 37.9 98.3 36.3 98.3 34.1C98.3 32.9 98.2 31.9 97.9 31C97.6 30.1 97.1 29.4 96.4 28.9C95.7 28.4 94.8 28.1 93.6 28.1H89.6V40.4ZM89.6 25.8H93.6C94.7 25.8 95.6 25.6 96.2 25.2C96.8 24.7 97.2 24.1 97.5 23.4C97.7 22.6 97.9 21.7 97.9 20.6C97.9 19.4 97.7 18.5 97.4 17.7C97.1 16.9 96.5 16.4 95.7 16C94.9 15.6 93.8 15.5 92.3 15.5H89.7V25.8H89.6Z"
			fill="url(#paint0_linear_1_2)" />
		<path
			d="M116.6 42.4L122.7 13.3H125.6L131.8 42.4H129.1L127.7 34.6H120.8L119.3 42.4H116.6ZM121.2 32.6H127.4L124.3 16.9L121.2 32.6Z"
			fill="white" />
		<path
			d="M116.6 42.4L122.7 13.3H125.6L131.8 42.4H129.1L127.7 34.6H120.8L119.3 42.4H116.6ZM121.2 32.6H127.4L124.3 16.9L121.2 32.6Z"
			fill="url(#paint1_linear_1_2)" />
		<path
			d="M154.8 42.8C153.2 42.8 151.9 42.5 150.8 41.8C149.8 41.1 149 40.2 148.5 39C148 37.8 147.6 36.4 147.5 34.8L149.9 34.1C150 35.3 150.2 36.4 150.5 37.4C150.8 38.4 151.3 39.1 152 39.7C152.7 40.3 153.6 40.5 154.8 40.5C156.1 40.5 157.1 40.2 157.8 39.5C158.5 38.8 158.9 37.8 158.9 36.3C158.9 35 158.6 33.9 157.9 33C157.3 32.1 156.4 31.1 155.3 30.1L150.2 25.2C149.3 24.3 148.6 23.4 148.2 22.5C147.8 21.5 147.6 20.5 147.6 19.4C147.6 17.4 148.2 15.8 149.4 14.8C150.6 13.7 152.2 13.2 154.2 13.2C155.2 13.2 156.2 13.3 157 13.6C157.8 13.9 158.5 14.3 159.1 14.9C159.7 15.5 160.2 16.2 160.5 17.2C160.8 18.1 161.1 19.3 161.2 20.6L158.9 21.2C158.8 20 158.6 18.9 158.3 18.1C158 17.2 157.5 16.5 156.9 16.1C156.3 15.6 155.4 15.4 154.3 15.4C153.1 15.4 152.1 15.7 151.4 16.3C150.7 16.9 150.2 17.9 150.2 19.2C150.2 20 150.3 20.7 150.6 21.4C150.9 22 151.5 22.7 152.2 23.5L157.3 28.4C158.4 29.5 159.4 30.7 160.3 32C161.1 33.3 161.6 34.8 161.6 36.5C161.6 38 161.3 39.2 160.7 40.2C160.1 41.2 159.4 41.9 158.4 42.4C157.3 42.5 156.2 42.8 154.8 42.8Z"
			fill="white" />
		<path
			d="M154.8 42.8C153.2 42.8 151.9 42.5 150.8 41.8C149.8 41.1 149 40.2 148.5 39C148 37.8 147.6 36.4 147.5 34.8L149.9 34.1C150 35.3 150.2 36.4 150.5 37.4C150.8 38.4 151.3 39.1 152 39.7C152.7 40.3 153.6 40.5 154.8 40.5C156.1 40.5 157.1 40.2 157.8 39.5C158.5 38.8 158.9 37.8 158.9 36.3C158.9 35 158.6 33.9 157.9 33C157.3 32.1 156.4 31.1 155.3 30.1L150.2 25.2C149.3 24.3 148.6 23.4 148.2 22.5C147.8 21.5 147.6 20.5 147.6 19.4C147.6 17.4 148.2 15.8 149.4 14.8C150.6 13.7 152.2 13.2 154.2 13.2C155.2 13.2 156.2 13.3 157 13.6C157.8 13.9 158.5 14.3 159.1 14.9C159.7 15.5 160.2 16.2 160.5 17.2C160.8 18.1 161.1 19.3 161.2 20.6L158.9 21.2C158.8 20 158.6 18.9 158.3 18.1C158 17.2 157.5 16.5 156.9 16.1C156.3 15.6 155.4 15.4 154.3 15.4C153.1 15.4 152.1 15.7 151.4 16.3C150.7 16.9 150.2 17.9 150.2 19.2C150.2 20 150.3 20.7 150.6 21.4C150.9 22 151.5 22.7 152.2 23.5L157.3 28.4C158.4 29.5 159.4 30.7 160.3 32C161.1 33.3 161.6 34.8 161.6 36.5C161.6 38 161.3 39.2 160.7 40.2C160.1 41.2 159.4 41.9 158.4 42.4C157.3 42.5 156.2 42.8 154.8 42.8Z"
			fill="url(#paint2_linear_1_2)" />
		<path d="M178.5 42.4V13.3H189V15.4H181.2V26.3H187.5V28.3H181.2V40.3H189V42.3H178.5V42.4Z"
			fill="white" />
		<path d="M178.5 42.4V13.3H189V15.4H181.2V26.3H187.5V28.3H181.2V40.3H189V42.3H178.5V42.4Z"
			fill="url(#paint3_linear_1_2)" />
		<path d="M78 1H201V55H78" stroke="url(#paint4_linear_1_2)" />
	</g>
	<defs>
		<linearGradient id="paint0_linear_1_2" x1="88.4995" y1="27.8511" x2="189.056" y2="27.7572"
			gradientUnits="userSpaceOnUse">
			<stop stop-color="#EA4213" />
			<stop offset="1" stop-color="#FAFF10" />
		</linearGradient>
		<linearGradient id="paint1_linear_1_2" x1="88.4996" y1="27.8855" x2="189.057" y2="27.7916"
			gradientUnits="userSpaceOnUse">
			<stop stop-color="#EA4213" />
			<stop offset="1" stop-color="#FAFF10" />
		</linearGradient>
		<linearGradient id="paint2_linear_1_2" x1="88.4996" y1="27.9469" x2="189.057" y2="27.853"
			gradientUnits="userSpaceOnUse">
			<stop stop-color="#EA4213" />
			<stop offset="1" stop-color="#FAFF10" />
		</linearGradient>
		<linearGradient id="paint3_linear_1_2" x1="88.4996" y1="27.9382" x2="189.057" y2="27.8443"
			gradientUnits="userSpaceOnUse">
			<stop stop-color="#EA4213" />
			<stop offset="1" stop-color="#FAFF10" />
		</linearGradient>
		<linearGradient id="paint4_linear_1_2" x1="87.5153" y1="27.91" x2="200.998" y2="28.1423"
			gradientUnits="userSpaceOnUse">
			<stop stop-color="#EA4213" stop-opacity="0" />
			<stop offset="1" stop-color="#FAFF10" />
		</linearGradient>
		<clipPath id="clip0_1_2">
			<rect width="202" height="56" fill="white" />
		</clipPath>
	</defs>
</svg>
